tenants/businesswise/icons/profile_logged_out.svg

<svg fill="none" height="24" viewBox="0 0 24 24" width="24" xmlns="http://www.w3.org/2000/svg"><path d="m14.249 5.75c0 .99456-.3951 1.94839-1.0983 2.65165-.7033.70326-1.6571 1.09835-2.6517 1.09835-.99456 0-1.94839-.39509-2.65165-1.09835s-1.09835-1.65709-1.09835-2.65165.39509-1.94839 1.09835-2.65165 1.65709-1.09835 2.65165-1.09835c.9946 0 1.9484.39509 2.6517 1.09835.7032.70326 1.0983 1.65709 1.0983 2.65165zm-11.249 14.118c.03213-1.9676.83634-3.8438 2.23918-5.224 1.40284-1.3801 3.29191-2.1535 5.25982-2.1535 1.9679 0 3.857.7734 5.2598 2.1535 1.4029 1.3802 2.2071 3.2564 2.2392 5.224-2.3523 1.0798-4.9107 1.6366-7.499 1.632-2.676 0-5.216-.584-7.499-1.632z" stroke="#000" stroke-linecap="round" stroke-linejoin="round" stroke-width="1.5"/><path d="m17.5 22.5c2.7614 0 5-2.2386 5-5s-2.2386-5-5-5-5 2.2386-5 5 2.2386 5 5 5z" fill="#d79609" stroke="#fff"/><path d="m19.6416 16.0731c.1979-.1973.1981-.5177.0005-.7152-.1975-.1976-.5179-.1974-.7152.0005l-1.4269 1.4309-1.4269-1.4309c-.1973-.1979-.5177-.1981-.7152-.0005-.1976.1975-.1974.5179.0005.7152l1.4309 1.4269-1.4309 1.4269c-.1979.1973-.1981.5177-.0005.7152.1975.1976.5179.1974.7152-.0005l1.4269-1.4309 1.4269 1.4309c.1973.1979.5177.1981.7152.0005.1976-.1975.1974-.5179-.0005-.7152l-1.4309-1.4269z" fill="#fff"/></svg>

<svg width="24" height="24" viewBox="0 0 24 24" fill="none" xmlns="http://www.w3.org/2000/svg">
<path d="M14.249 5.75C14.249 6.74456 13.8539 7.69839 13.1507 8.40165C12.4474 9.10491 11.4936 9.5 10.499 9.5C9.50444 9.5 8.55061 9.10491 7.84735 8.40165C7.14409 7.69839 6.749 6.74456 6.749 5.75C6.749 4.75544 7.14409 3.80161 7.84735 3.09835C8.55061 2.39509 9.50444 2 10.499 2C11.4936 2 12.4474 2.39509 13.1507 3.09835C13.8539 3.80161 14.249 4.75544 14.249 5.75ZM3 19.868C3.03213 17.9004 3.83634 16.0242 5.23918 14.644C6.64202 13.2639 8.53109 12.4905 10.499 12.4905C12.4669 12.4905 14.356 13.2639 15.7588 14.644C17.1617 16.0242 17.9659 17.9004 17.998 19.868C15.6457 20.9478 13.0873 21.5046 10.499 21.5C7.823 21.5 5.283 20.916 3 19.868Z" stroke="black" stroke-width="1.5" stroke-linecap="round" stroke-linejoin="round"/>
<path d="M17.5 22.5C20.2614 22.5 22.5 20.2614 22.5 17.5C22.5 14.7386 20.2614 12.5 17.5 12.5C14.7386 12.5 12.5 14.7386 12.5 17.5C12.5 20.2614 14.7386 22.5 17.5 22.5Z" fill="#D79609" stroke="white"/>
<path d="M19.6416 16.0731C19.8395 15.8758 19.8397 15.5554 19.6421 15.3579V15.3579C19.4446 15.1603 19.1242 15.1605 18.9269 15.3584L17.5 16.7893L16.0731 15.3584C15.8758 15.1605 15.5554 15.1603 15.3579 15.3579V15.3579C15.1603 15.5554 15.1605 15.8758 15.3584 16.0731L16.7893 17.5L15.3584 18.9269C15.1605 19.1242 15.1603 19.4446 15.3579 19.6421V19.6421C15.5554 19.8397 15.8758 19.8395 16.0731 19.6416L17.5 18.2107L18.9269 19.6416C19.1242 19.8395 19.4446 19.8397 19.6421 19.6421V19.6421C19.8397 19.4446 19.8395 19.1242 19.6416 18.9269L18.2107 17.5L19.6416 16.0731Z" fill="white"/>
</svg>
